public/logos/U4.svg

<?xml version="1.0" encoding="UTF-8"?>
<svg xmlns="http://www.w3.org/2000/svg" xmlns:xlink="http://www.w3.org/1999/xlink" width="176pt" height="39.77pt" viewBox="0 0 176 39.77" version="1.1">
<defs>
<clipPath id="clip1">
  <path d="M 0 2 L 37 2 L 37 39.769531 L 0 39.769531 Z M 0 2 "/>
</clipPath>
<clipPath id="clip2">
  <path d="M 17 0 L 60 0 L 60 39.769531 L 17 39.769531 Z M 17 0 "/>
</clipPath>
</defs>
<g id="surface1">
<g clip-path="url(#clip1)" clip-rule="nonzero">
<path style=" stroke:none;fill-rule:evenodd;fill:rgb(77.418518%,62.541199%,10.931396%);fill-opacity:1;" d="M 0.0429688 27.71875 C 0.0429688 27.71875 -0.714844 23.109375 4.039062 23.453125 C 4.039062 23.453125 6.902344 23.800781 9.679688 26.203125 C 9.679688 26.203125 12.261719 28.339844 14.566406 23.386719 C 14.566406 23.386719 17.058594 13.289062 19.941406 9.484375 C 22.109375 6.617188 28.679688 1.164062 36.25 2.402344 C 36.25 2.402344 22.464844 9.542969 23.269531 25.730469 C 23.960938 28.386719 26.085938 32.601562 28.609375 35.011719 C 28.609375 35.011719 19.648438 45.535156 9.75 35.285156 L 4.382812 28.335938 C 4.382812 28.335938 2.941406 26.167969 0.9375 27.167969 L 0.0429688 27.71875 "/>
</g>
<path style=" stroke:none;fill-rule:evenodd;fill:rgb(17.538452%,31.350708%,66.575623%);fill-opacity:1;" d="M 132.03125 23.785156 C 131.855469 24.828125 131.523438 25.558594 131.011719 25.984375 C 130.492188 26.410156 129.972656 26.636719 129.445312 26.636719 C 129.066406 26.636719 128.746094 26.53125 128.507812 26.332031 C 128.265625 26.125 128.15625 25.855469 128.15625 25.503906 C 128.15625 25.171875 128.324219 24.878906 128.65625 24.632812 C 128.992188 24.386719 130.109375 24.105469 132.03125 23.785156 Z M 60.597656 22.347656 L 63.097656 22.347656 C 63.878906 22.347656 64.394531 22.480469 64.648438 22.71875 C 64.898438 22.953125 65.035156 23.265625 65.035156 23.675781 C 65.035156 24.839844 64.152344 25.417969 62.40625 25.417969 L 59.917969 25.417969 Z M 103.84375 20.324219 C 104.261719 20.324219 104.628906 20.488281 104.953125 20.804688 C 105.277344 21.121094 105.4375 21.585938 105.4375 22.21875 C 105.4375 23.121094 105.238281 24.007812 104.824219 24.871094 C 104.410156 25.738281 103.8125 26.15625 103.039062 26.15625 C 102.613281 26.15625 102.277344 25.996094 102.019531 25.679688 C 101.757812 25.355469 101.625 24.898438 101.625 24.285156 C 101.625 23.191406 101.839844 22.253906 102.277344 21.476562 C 102.71875 20.703125 103.238281 20.324219 103.84375 20.324219 Z M 90.308594 20.324219 C 90.722656 20.324219 91.09375 20.488281 91.417969 20.804688 C 91.746094 21.121094 91.894531 21.585938 91.894531 22.21875 C 91.894531 23.121094 91.703125 24.007812 91.285156 24.871094 C 90.875 25.738281 90.273438 26.15625 89.503906 26.15625 C 89.078125 26.15625 88.742188 25.996094 88.476562 25.679688 C 88.21875 25.355469 88.089844 24.898438 88.089844 24.285156 C 88.089844 23.191406 88.304688 22.253906 88.738281 21.476562 C 89.179688 20.703125 89.703125 20.324219 90.308594 20.324219 Z M 161.527344 17.777344 L 159.195312 28.636719 L 163.375 28.636719 L 165.726562 17.777344 Z M 72.394531 17.777344 L 71.128906 23.589844 C 70.847656 24.917969 70.695312 25.839844 70.695312 26.308594 C 70.695312 27.027344 70.941406 27.628906 71.433594 28.136719 C 71.933594 28.644531 72.675781 28.898438 73.675781 28.898438 C 75.339844 28.898438 76.746094 28.242188 77.878906 26.941406 L 77.921875 26.984375 L 77.550781 28.636719 L 81.46875 28.636719 L 83.796875 17.777344 L 79.597656 17.777344 L 78.578125 22.480469 C 78.34375 23.554688 78.015625 24.386719 77.550781 24.960938 C 77.09375 25.53125 76.546875 25.832031 75.917969 25.832031 C 75.382812 25.832031 75.113281 25.523438 75.113281 24.9375 L 75.113281 24.917969 C 75.113281 24.730469 75.113281 24.5625 75.136719 24.4375 C 75.15625 24.3125 75.253906 23.867188 75.417969 23.089844 L 76.574219 17.777344 Z M 174.5625 17.539062 C 173.976562 17.539062 173.449219 17.691406 172.953125 18.015625 C 172.457031 18.34375 171.882812 18.988281 171.234375 19.953125 L 171.1875 19.910156 L 171.671875 17.777344 L 167.769531 17.777344 L 165.445312 28.636719 L 169.644531 28.636719 L 170.492188 24.589844 C 170.765625 23.324219 171.148438 22.394531 171.648438 21.824219 C 172.148438 21.25 172.808594 20.953125 173.605469 20.953125 C 173.855469 20.953125 174.132812 21.011719 174.457031 21.085938 L 176 17.863281 C 175.488281 17.644531 175.011719 17.539062 174.5625 17.539062 Z M 152.710938 17.539062 L 152.753906 17.539062 L 153.214844 23 L 150.121094 23 Z M 131.183594 17.539062 C 129.296875 17.539062 127.898438 17.804688 127.003906 18.363281 C 126.105469 18.921875 125.519531 19.730469 125.265625 20.757812 L 129.160156 21.171875 C 129.382812 20.679688 129.648438 20.367188 129.941406 20.214844 C 130.242188 20.0625 130.621094 19.976562 131.097656 19.976562 C 131.554688 19.976562 131.933594 20.074219 132.207031 20.238281 C 132.484375 20.398438 132.617188 20.617188 132.617188 20.890625 C 132.617188 21.0625 132.570312 21.304688 132.492188 21.628906 C 132.085938 21.753906 131.277344 21.871094 130.070312 22 C 128.714844 22.136719 127.65625 22.296875 126.875 22.480469 C 126.082031 22.660156 125.410156 22.996094 124.871094 23.5 C 124.335938 24.003906 124.066406 24.738281 124.066406 25.699219 C 124.066406 26.546875 124.375 27.300781 124.980469 27.941406 C 125.585938 28.585938 126.566406 28.898438 127.941406 28.898438 C 129.289062 28.898438 130.503906 28.398438 131.597656 27.398438 C 131.597656 27.796875 131.65625 28.207031 131.746094 28.636719 L 135.820312 28.636719 C 135.640625 28.125 135.539062 27.628906 135.539062 27.136719 C 135.539062 26.554688 135.710938 25.527344 136.058594 24.046875 C 136.4375 22.480469 136.625 21.355469 136.625 20.671875 C 136.625 19.648438 136.261719 18.878906 135.515625 18.34375 C 134.769531 17.804688 133.320312 17.539062 131.183594 17.539062 Z M 61.773438 16.667969 L 63.753906 16.667969 C 64.484375 16.667969 64.960938 16.769531 65.207031 16.972656 C 65.460938 17.175781 65.601562 17.476562 65.601562 17.84375 C 65.601562 18.148438 65.488281 18.449219 65.253906 18.757812 C 65.027344 19.058594 64.714844 19.269531 64.34375 19.367188 C 63.96875 19.460938 63.453125 19.496094 62.773438 19.496094 L 61.183594 19.496094 Z M 162.398438 13.621094 L 161.808594 16.492188 L 165.988281 16.492188 L 166.574219 13.621094 Z M 150.925781 13.621094 L 142.4375 28.636719 L 147.441406 28.636719 L 148.597656 26.179688 L 153.496094 26.179688 L 153.714844 28.636719 L 158.257812 28.636719 L 155.867188 13.621094 Z M 113.53125 13.621094 L 110.285156 28.636719 L 114.488281 28.636719 L 115.511719 23.9375 C 115.742188 22.851562 116.078125 22.011719 116.535156 21.433594 C 116.996094 20.855469 117.535156 20.5625 118.144531 20.5625 C 118.695312 20.5625 118.972656 20.878906 118.972656 21.476562 C 118.972656 21.65625 118.839844 22.351562 118.578125 23.589844 L 117.511719 28.636719 L 121.691406 28.636719 L 122.957031 22.71875 C 123.226562 21.433594 123.367188 20.5625 123.367188 20.128906 C 123.367188 19.402344 123.121094 18.785156 122.628906 18.277344 C 122.140625 17.773438 121.410156 17.539062 120.433594 17.539062 C 118.871094 17.539062 117.589844 18.058594 116.578125 19.105469 L 116.535156 19.0625 L 117.691406 13.621094 Z M 107.394531 13.621094 L 106.195312 19.214844 C 105.417969 18.074219 104.265625 17.515625 102.734375 17.515625 C 101.238281 17.515625 99.992188 18.191406 99.015625 19.5625 C 98.035156 20.929688 97.554688 22.550781 97.554688 24.394531 C 97.554688 25.773438 97.882812 26.863281 98.53125 27.679688 C 99.1875 28.492188 100.113281 28.898438 101.34375 28.898438 C 101.996094 28.898438 102.566406 28.804688 103.039062 28.617188 C 103.519531 28.425781 104.0625 28.050781 104.648438 27.507812 L 104.671875 27.570312 L 104.476562 28.636719 L 108.351562 28.636719 L 111.574219 13.621094 Z M 93.855469 13.621094 L 92.65625 19.214844 C 91.878906 18.074219 90.726562 17.515625 89.199219 17.515625 C 87.699219 17.515625 86.457031 18.191406 85.476562 19.5625 C 84.492188 20.929688 84.015625 22.550781 84.015625 24.394531 C 84.015625 25.773438 84.34375 26.863281 84.996094 27.679688 C 85.648438 28.492188 86.570312 28.898438 87.804688 28.898438 C 88.460938 28.898438 89.027344 28.804688 89.503906 28.617188 C 89.972656 28.425781 90.527344 28.050781 91.113281 27.507812 L 91.15625 27.570312 L 90.9375 28.636719 L 94.816406 28.636719 L 98.035156 13.621094 Z M 57.789062 13.621094 L 54.589844 28.636719 L 63.835938 28.636719 C 65.675781 28.636719 67.09375 28.167969 68.082031 27.203125 C 69.074219 26.234375 69.566406 25.144531 69.566406 23.957031 C 69.566406 22.328125 68.753906 21.285156 67.148438 20.804688 L 67.148438 20.757812 C 68.128906 20.457031 68.851562 19.972656 69.304688 19.300781 C 69.746094 18.632812 69.957031 17.902344 69.957031 17.144531 C 69.957031 16.554688 69.828125 16.011719 69.542969 15.511719 C 69.257812 15.015625 68.867188 14.621094 68.367188 14.316406 C 67.863281 14.011719 67.34375 13.824219 66.800781 13.75 C 66.261719 13.675781 65.546875 13.621094 64.710938 13.621094 L 57.789062 13.621094 "/>
<g clip-path="url(#clip2)" clip-rule="nonzero">
<path style=" stroke:none;fill-rule:evenodd;fill:rgb(73.439026%,73.887634%,74.09668%);fill-opacity:1;" d="M 17.675781 24.757812 C 17.675781 24.757812 17.84375 20.570312 20.789062 20.570312 C 23.734375 20.570312 25.546875 24.363281 29.121094 24.363281 C 32.6875 24.363281 33.652344 16.492188 34.164062 14.394531 C 34.671875 12.292969 38.011719 0 53.203125 0 C 53.203125 0 41.191406 7.03125 41.191406 21.308594 C 41.191406 35.585938 57.683594 38.875 59.433594 38.875 C 59.433594 38.875 55.691406 39.324219 52.917969 39.324219 C 50.140625 39.324219 44.304688 38.59375 40.28125 35.191406 C 36.257812 31.789062 31.328125 32.132812 29.121094 33.71875 C 29.121094 33.71875 22.609375 20.503906 17.675781 24.757812 "/>
</g>
</g>
</svg>

<svg xmlns="http://www.w3.org/2000/svg" width="176pt" height="53.027" viewBox="0 0 176 39.77"><defs><clipPath id="a"><path d="M0 2h37v37.77H0Zm0 0"/></clipPath><clipPath id="b"><path d="M17 0h43v39.77H17Zm0 0"/></clipPath></defs><g clip-path="url(#a)"><path d="M.043 27.719s-.758-4.61 3.996-4.266c0 0 2.863.348 5.64 2.75 0 0 2.583 2.137 4.887-2.816 0 0 2.493-10.098 5.375-13.903 2.168-2.867 8.739-8.32 16.309-7.082 0 0-13.785 7.141-12.98 23.328.69 2.657 2.816 6.872 5.34 9.282 0 0-8.962 10.523-18.86.273l-5.367-6.95S2.94 26.169.938 27.169z" style="stroke:none;fill-rule:evenodd;fill:#c59f1c;fill-opacity:1"/></g><path d="M132.031 23.785c-.176 1.043-.508 1.774-1.02 2.2-.519.425-1.038.652-1.566.652-.379 0-.699-.106-.937-.305-.242-.207-.352-.477-.352-.828q.001-.5.5-.871c.336-.246 1.453-.528 3.375-.848m-71.433-1.437h2.5c.78 0 1.297.132 1.55.37.25.235.387.548.387.958 0 1.164-.883 1.742-2.629 1.742h-2.488Zm43.246-2.024c.418 0 .785.164 1.11.48.323.317.484.782.484 1.415 0 .902-.2 1.789-.614 2.652-.414.867-1.011 1.285-1.785 1.285-.426 0-.762-.16-1.02-.476-.261-.325-.394-.782-.394-1.395q-.002-1.642.652-2.808c.442-.774.961-1.153 1.567-1.153m-13.535 0c.414 0 .785.164 1.109.48.328.317.477.782.477 1.415a6 6 0 0 1-.61 2.652c-.41.867-1.012 1.285-1.781 1.285-.426 0-.762-.16-1.027-.476-.258-.325-.387-.782-.387-1.395q0-1.642.648-2.808c.442-.774.965-1.153 1.57-1.153m71.218-2.547-2.332 10.86h4.18l2.352-10.86Zm-89.132 0-1.266 5.813c-.281 1.328-.434 2.25-.434 2.719 0 .718.246 1.32.739 1.828.5.508 1.242.761 2.242.761 1.664 0 3.07-.656 4.203-1.957l.043.043-.371 1.653h3.918l2.328-10.86h-4.2l-1.019 4.703c-.234 1.075-.562 1.907-1.027 2.48-.457.571-1.004.872-1.633.872-.535 0-.805-.309-.805-.895v-.019c0-.188 0-.355.024-.48.02-.125.117-.57.281-1.348l1.156-5.313Zm102.168-.238c-.586 0-1.114.152-1.61.477q-.745.49-1.719 1.937l-.047-.043.485-2.133h-3.902l-2.325 10.86h4.2l.847-4.047c.274-1.266.656-2.195 1.156-2.766.5-.574 1.16-.87 1.957-.87.25 0 .528.058.852.132L176 17.863c-.512-.218-.988-.324-1.437-.324m-21.852 0h.043l.46 5.461h-3.093Zm-21.527 0c-1.887 0-3.286.266-4.18.824a3.8 3.8 0 0 0-1.738 2.395l3.894.414c.223-.492.488-.805.781-.957.301-.152.68-.238 1.157-.238.457 0 .836.097 1.109.261.277.16.41.38.41.653 0 .172-.047.414-.125.738-.406.125-1.215.242-2.422.371-1.355.137-2.414.297-3.195.48-.793.18-1.465.516-2.004 1.02q-.804.756-.805 2.2c0 .847.309 1.6.914 2.241.606.645 1.586.957 2.961.957 1.348 0 2.563-.5 3.657-1.5 0 .399.058.809.148 1.239h4.074c-.18-.512-.28-1.008-.28-1.5 0-.582.17-1.61.519-3.09q.567-2.35.566-3.375c0-1.024-.363-1.793-1.11-2.328-.745-.54-2.195-.805-4.331-.805m-69.41-.871h1.98c.73 0 1.207.102 1.453.305.254.203.395.504.395.87 0 .305-.114.606-.348.915-.227.3-.54.512-.91.61-.375.093-.89.128-1.57.128h-1.59Zm100.624-3.047-.59 2.871h4.18l.586-2.87Zm-11.472 0-8.488 15.016h5.003l1.157-2.457h4.898l.219 2.457h4.543l-2.39-15.016Zm-37.395 0-3.246 15.016h4.203l1.024-4.7c.23-1.085.566-1.925 1.023-2.503q.693-.87 1.61-.872c.55 0 .828.317.828.915 0 .18-.133.875-.395 2.113l-1.066 5.047h4.18l1.265-5.918c.27-1.285.41-2.157.41-2.59q0-1.09-.738-1.852c-.488-.504-1.219-.738-2.195-.738-1.563 0-2.844.52-3.856 1.566l-.043-.043 1.156-5.44Zm-6.136 0-1.2 5.594c-.777-1.14-1.93-1.7-3.46-1.7-1.497 0-2.743.676-3.72 2.047-.98 1.368-1.46 2.989-1.46 4.833 0 1.378.328 2.468.976 3.285.656.812 1.582 1.218 2.813 1.218.652 0 1.222-.093 1.695-.28.48-.192 1.023-.567 1.61-1.11l.023.062-.195 1.067h3.875l3.222-15.016Zm-13.54 0-1.199 5.594c-.777-1.14-1.93-1.7-3.457-1.7-1.5 0-2.742.676-3.722 2.047-.985 1.368-1.461 2.989-1.461 4.833 0 1.378.328 2.468.98 3.285.652.812 1.574 1.218 2.809 1.218q.984 0 1.699-.28c.469-.192 1.023-.567 1.61-1.11l.042.062-.219 1.067h3.88l3.218-15.016Zm-36.066 0-3.2 15.016h9.247c1.84 0 3.258-.469 4.246-1.434.992-.969 1.484-2.058 1.484-3.246 0-1.629-.812-2.672-2.418-3.152v-.047c.98-.301 1.704-.785 2.157-1.457a3.86 3.86 0 0 0 .652-2.156c0-.59-.129-1.133-.414-1.633a3.3 3.3 0 0 0-1.176-1.196 4.1 4.1 0 0 0-1.566-.566 16 16 0 0 0-2.09-.129z" style="stroke:none;fill-rule:evenodd;fill:#2d50aa;fill-opacity:1"/><g clip-path="url(#b)"><path d="M17.676 24.758s.168-4.188 3.113-4.188 4.758 3.793 8.332 3.793c3.567 0 4.531-7.87 5.043-9.968C34.672 12.293 38.012 0 53.204 0c0 0-12.013 7.031-12.013 21.309 0 14.277 16.493 17.566 18.243 17.566 0 0-3.743.45-6.516.45-2.777 0-8.613-.731-12.637-4.134-4.023-3.402-8.953-3.058-11.16-1.472 0 0-6.512-13.215-11.445-8.961" style="stroke:none;fill-rule:evenodd;fill:#bbbcbd;fill-opacity:1"/></g></svg>
